assets/T-rex/Flat/t-rex_flat.svg

<svg width="32" height="32" viewBox="0 0 32 32" fill="none" xmlns="http://www.w3.org/2000/svg">
<path d="M14.9687 7.65625C14.9687 5.03125 12.8906 4.03127 11.375 4.03127C9.67985 4.03127 8.79665 4.01688 7.10155 4.03137L7.07329 4.03161C6.502 4.03644 5.19441 4.04752 4.71094 4.19531C1.69531 5.11717 2.03125 7.62501 2.03125 9.15626C2.03125 10.359 2.71875 10.9759 3.31264 10.9759C4.04687 10.9759 4.86986 10.9632 5.63281 10.9759C6.20186 10.9854 6.41406 11.0313 6.41406 11.6563V15.0312L5 16.5L6.45822 17.6575C6.73039 19.8957 8.22052 21.5363 9.8125 22.5938C10.457 23.0218 11 24 12.5 24.5C14 25 14.9271 23.9375 14.9271 23.9375C15.5188 23.9753 16.0444 23.9742 16.4375 23.9375C17.0547 25.0469 18.75 25.6406 19.125 25.7656C19.425 25.8656 19.1979 26.0469 19.125 26.1406C18.2812 26.9219 16.6574 28.5408 16.1953 29.0469C15.7031 29.5859 16.2292 29.8959 16.4687 29.9375H19.7187C20.4437 29.9375 20.8333 29.3959 20.9375 29.125V24C32.2969 23.5469 30.0312 12.8125 28.9531 11.4688C28.8299 11.3152 28.2607 10.2221 27.9297 10.4648C27.8125 10.5508 27.8708 10.8555 27.8789 11.0312C28.0659 15.1075 26 16.6719 24.125 17.5781C22.5359 18.1399 20.9375 17.9375 20.9375 17.9375C20.9375 17.9375 20.5054 13.0919 15.0711 13.0318C15.0158 13.0312 14.9687 12.9871 14.9687 12.9319V7.65625Z" fill="#00D26A"/>
<path d="M9.8125 22.5938C9.75305 22.5543 9.69374 22.514 9.63463 22.4729C9.95389 23.5911 11.2651 25.3173 13.1562 25.6719C13.4478 25.7265 13.3125 25.9531 13.1562 26.1094L10.125 29.1719C9.90625 29.4141 9.95783 29.9453 10.5625 29.9453H14.0078C14.3307 29.9141 14.9688 29.6484 14.9688 28.6641V23.9401C13.2861 23.8372 11.0503 23.4159 9.8125 22.5938Z" fill="#008463"/>
<path d="M6.41406 16.9219V15.0155H4.82812C4.5625 15.0103 4.03125 15.1655 4.03125 15.828V18.3125C4.03125 18.8646 4.74985 19.3057 5.40625 18.7344C5.72872 18.4537 5.90171 18.2312 6.03554 18.0591C6.17726 17.8768 6.27508 17.751 6.46005 17.6724C6.42987 17.4293 6.41406 17.1791 6.41406 16.9219Z" fill="#008463"/>
<path d="M8.99219 18.5C8.99219 18.8672 9.71094 19.2266 10.2188 18.7188C10.2843 18.6532 10.3566 18.581 10.4343 18.5034C11.1128 17.8259 12.205 16.7354 12.8125 16.0625C13.2246 15.6061 12.9922 15.0312 12.2656 15.0312H9.875C9.60417 15.0417 8.99219 15.2188 8.99219 15.8438V18.5Z" fill="#008463"/>
<path d="M9.03876 5.32744C9.23367 5.13918 9.54429 5.14457 9.73255 5.33948C9.92081 5.53439 9.91542 5.84501 9.72051 6.03327L9.01702 6.71277C8.82211 6.90103 8.51149 6.89564 8.32323 6.70073C8.13497 6.50582 8.14036 6.1952 8.33527 6.00694L9.03876 5.32744Z" fill="#1C1C1C"/>
</svg>

<svg xmlns="http://www.w3.org/2000/svg" width="32" height="32" fill="none"><path fill="#00D26A" d="M14.969 7.656c0-2.625-2.078-3.625-3.594-3.625-1.695 0-2.578-.014-4.273 0h-.029c-.571.005-1.879.017-2.362.164-3.016.922-2.68 3.43-2.68 4.961 0 1.203.688 1.82 1.282 1.82.734 0 1.557-.013 2.32 0 .569.01.781.055.781.68v3.375L5 16.5l1.458 1.157c.272 2.239 1.763 3.88 3.354 4.937C10.457 23.022 11 24 12.5 24.5c1.5.5 2.427-.563 2.427-.563.592.038 1.117.037 1.51 0 .618 1.11 2.313 1.704 2.688 1.829.3.1.073.28 0 .375-.844.78-2.468 2.4-2.93 2.906-.492.539.034.849.274.89h3.25c.725 0 1.114-.541 1.218-.812V24c11.36-.453 9.094-11.188 8.016-12.531-.123-.154-.692-1.247-1.023-1.004-.117.086-.06.39-.051.566.187 4.076-1.879 5.64-3.754 6.547-1.59.562-3.188.36-3.188.36s-.432-4.846-5.866-4.906a.102.102 0 0 1-.102-.1V7.656Z"/><path fill="#008463" d="M9.813 22.594c-.06-.04-.12-.08-.178-.121.319 1.118 1.63 2.844 3.521 3.199.292.055.156.281 0 .437l-3.031 3.063c-.219.242-.167.773.438.773h3.445c.323-.03.96-.297.96-1.28V23.94c-1.682-.103-3.918-.524-5.155-1.346ZM6.414 16.922v-1.907H4.828c-.266-.005-.797.15-.797.813v2.485c0 .552.719.993 1.375.421.323-.28.496-.503.63-.675.141-.182.24-.308.424-.387a6.087 6.087 0 0 1-.046-.75ZM8.992 18.5c0 .367.719.727 1.227.219l.215-.216c.679-.677 1.771-1.768 2.379-2.44.412-.457.18-1.032-.547-1.032H9.875c-.27.01-.883.188-.883.813V18.5Z"/><path fill="#1C1C1C" d="M9.039 5.327a.49.49 0 1 1 .682.706l-.704.68a.49.49 0 1 1-.682-.706l.704-.68Z"/></svg>
